assets/svgs/extras/smileys-emotion/SmileysEmotion1.svg

<svg id="emoji" viewBox="0 0 72 72" xmlns="http://www.w3.org/2000/svg">
  <g id="color">
    <path fill="#FCEA2B" d="M36,13.2002c-12.5719,0-22.7998,10.2279-22.7998,22.7998c0,12.5718,10.2279,22.7998,22.7998,22.7998 c12.5718,0,22.7998-10.228,22.7998-22.7998C58.7998,23.4281,48.5718,13.2002,36,13.2002z"/>
    <path fill="#FFFFFF" d="M31.5797,31.3465c0,2.4645-2.0004,4.4626-4.4626,4.4626s-4.4626-1.9981-4.4626-4.4626 c0-2.4622,2.0004-4.4626,4.4626-4.4626S31.5797,28.8843,31.5797,31.3465"/>
    <path fill="#FFFFFF" d="M49.5797,31.3465c0,2.4645-2.0004,4.4626-4.4626,4.4626s-4.4626-1.9981-4.4626-4.4626 c0-2.4622,2.0004-4.4626,4.4626-4.4626S49.5797,28.8843,49.5797,31.3465"/>
  </g>
  <g id="hair"/>
  <g id="skin"/>
  <g id="skin-shadow"/>
  <g id="line">
    <circle cx="36" cy="36" r="23" fill="none" stroke="#000000" stroke-miterlimit="10" stroke-width="2"/>
    <path fill="none" stroke="#000000" stroke-miterlimit="10" stroke-width="2" d="M31.7799,31.4626 c0,2.4645-2.0004,4.4626-4.4626,4.4626s-4.4626-1.9981-4.4626-4.4626c0-2.4622,2.0004-4.4626,4.4626-4.4626 S31.7799,29.0004,31.7799,31.4626"/>
    <path d="M29.3173,31.9252c0,1.1045-0.8965,2-2,2s-2-0.8955-2-2c0-1.1035,0.8965-2,2-2 C28.4208,29.9252,29.3173,30.8217,29.3173,31.9252"/>
    <path fill="none" stroke="#000000" stroke-miterlimit="10" stroke-width="2" d="M49.7799,31.4626 c0,2.4645-2.0004,4.4626-4.4626,4.4626s-4.4626-1.9981-4.4626-4.4626c0-2.4622,2.0004-4.4626,4.4626-4.4626 S49.7799,29.0004,49.7799,31.4626"/>
    <path d="M47.3173,31.9252c0,1.1045-0.8965,2-2,2s-2-0.8955-2-2c0-1.1035,0.8965-2,2-2 C46.4208,29.9252,47.3173,30.8217,47.3173,31.9252"/>
    <path d="M22.8547,31c0-2.4622,2.0004-4.4626,4.4626-4.4626S31.7799,28.5378,31.7799,31"/>
    <path d="M31.7799,31"/>
    <path d="M40.8547,31c0-2.4622,2.0004-4.4626,4.4626-4.4626S49.7799,28.5378,49.7799,31"/>
    <path fill="none" stroke="#000000" stroke-linecap="round" stroke-linejoin="round" stroke-miterlimit="10" stroke-width="2" d="M29,43c1.2841-0.6376,3.9847-1.0308,6.8421-0.9981C38.4656,42.0319,40.8318,42.4165,42,43"/>
  </g>
</svg>

<svg xmlns="http://www.w3.org/2000/svg" viewBox="0 0 72 72"><path fill="#FCEA2B" d="M36 13.2c-12.572 0-22.8 10.228-22.8 22.8 0 12.572 10.228 22.8 22.8 22.8 12.572 0 22.8-10.228 22.8-22.8 0-12.572-10.228-22.8-22.8-22.8z"/><path fill="#FFF" d="M31.58 31.346a4.464 4.464 0 11-4.463-4.463c2.462 0 4.463 2.001 4.463 4.464M49.58 31.346a4.464 4.464 0 11-4.463-4.463c2.462 0 4.463 2.001 4.463 4.464"/><g><circle cx="36" cy="36" r="23" fill="none" stroke="#000" stroke-miterlimit="10" stroke-width="2"/><path fill="none" stroke="#000" stroke-miterlimit="10" stroke-width="2" d="M31.78 31.463A4.464 4.464 0 1127.317 27c2.463 0 4.463 2 4.463 4.463"/><path d="M29.317 31.925a2 2 0 11-4.001-.001 2 2 0 014.001.001"/><path fill="none" stroke="#000" stroke-miterlimit="10" stroke-width="2" d="M49.78 31.463A4.464 4.464 0 1145.317 27c2.462 0 4.463 2 4.463 4.463"/><path d="M47.317 31.925a2 2 0 11-4.001-.001 2 2 0 014.001.001M22.855 31c0-2.462 2-4.463 4.462-4.463s4.463 2 4.463 4.463"/><path d="M40.855 31c0-2.462 2-4.463 4.462-4.463s4.463 2 4.463 4.463"/><path fill="none" stroke="#000" stroke-linecap="round" stroke-linejoin="round" stroke-miterlimit="10" stroke-width="2" d="M29 43c1.284-.638 3.985-1.03 6.842-.998 2.624.03 4.99.414 6.158.998"/></g></svg>
